X:1
T:Dung desplaisir
T:Jacotin
T:Source : Pemier livre contenant 31 chansons eslevées---Paris---Attaignant---1535. Editor : André Vierendeels (19/12/17). Notes : Original clefs : G2, C2, C3, C4 Original note values have been halved Editorial accidentals above the staff 
T:Dung desplaisir
T:©
T:©
T:©
T:©
C:Jacotin
Z:©
%%score [ 1 2 [ 3 4 ] ]
L:1/8
Q:1/4=120
M:2/2
K:F
V:1 treble nm="Soprano" snm="S"
V:2 treble nm="Alto" snm="A"
V:3 treble-8 nm="Tenor 1" snm="T 1"
V:4 treble-8 nm="Tenor 2" snm="T 2"
V:1
 z4 G4 | BABc d3 c | BA B4 AG | F8 |"^b" z2 d2 e2 d2 | cBAG A2 B2 | AG G4 F2 | G4 d4 | f2 e2 d4 | %9
w: Dung|des- * * * * *|* * plai- * *|sir,|a- mour si|fort _ _ _ _ me|las- * * *|se, que|si ia- mais,|
 z4 z2 A2- | A2 c2 B2 A2- | A2 c2 d2 e2- | ed d4 c2 | d4 z4 | z2 d2 c2 B2 | AGAB c2 d2- | %16
w: que|_ si ia- mais|_ ie suys hors|_ _ de ses|laz,|ie luy di-|ray _ _ _ _ en|
 d2 c2 d2 f2- | fe d2 c2 B2- | BA A4 G2 | A4 z2 G2 | BABc d3 c | BA B4 AG | F8 |"^b" z2 d2 e2 d2 | %24
w: _ _ deux motz|_ _ _ ie suys|_ _ _ _|las, ie|n'en _ _ _ _ _|_ _ suys _ _|plus,|ie vous quit-|
 cBAG A2 B2 | AG G4 F2 | G4 z2 G2 | BABc d3 c | BA B4 AG | F8 |"^b" z2 d2 e2 d2 | cBAG A2 B2 | %32
w: te _ _ _ _ la|pla- * * *|ce. Je|n'en _ _ _ _ _|_ _ suys _ _|plus,|ie vous quit-|te _ _ _ _ la|
 AG G4 F2 | G8 |] %34
w: pla- * * *|ce.|
V:2
 G,4 B,2 C2 | D4 G,3 A, | B,C D2 G,4 | A,2 A2 B2 A2 | G3 F E2 F2- | F2 C2 F4- | F2 E2 D4 | %7
w: Dung des- plai-|sir _ _|_ _ _ a-|mour si fort me|_ _ _ _||* * las-|
 D2 G4 B2 | A2 G3 FFE/D/ | C2 G2 z2 D2 | F2 E2 D4 | z2 A2 B4 | B2 G2 A4 | F2 A4 G2 | F3 G A2 G2 | %15
w: se, que si|ia- mais, _ _ _ _|_ _ que|si ia- mais,|ie suys|hors de ses|_ laz, ie|luy _ _ di-|
 F4 z2 G2 | F2 E2 D2 A2 | B2 A3 GFE | F4 D4 | z2 D2 EDEF | G4 G,3 A, | B,C D2 G,4 | A,2 A2 B2 A2 | %23
w: ray, ie|luy di- ray en|deux motz, ie _ _|suys las,|ie n'en _ _ _|_ suys _|_ _ _ _|plus, ie vous quit-|
"^b" G3 F E2 F2- | F2 C2 F4- |"^b" F2 E2 D4 | D2 G,2 B,2 C2 | D4 G,3 A, | B,C D2 G,4 | %29
w: te _ _ la|_ _ pla-||ce. Je n'en suys|plus, _ _|_ _ _ _|
 A,2 A2 B2 A2 |"^b" G3 F E2 F2- | F2 C2 F4- |"^b" F2 E2 D4 | D8 |] %34
w: * ie vous quit-|te _ _ la|_ _ pla-||ce.|
V:3
 z8 | z8 | G4 B2 c2 | d4 z2 d2 |"^b" e2 d2 c2 B2 |"^b" A3 B c2 d2 | cBAG A4 | G8 | z4 d4 | %9
w: ||Dung des- plai-|sir a-|mour si fort me|las- * * *||se,|que|
 f2 e2 d3 d | d2 c2 d2 f2- | f2 e2 d2 g2- | gfed e4 | d4 z2 d2 | c2 B2 A2 d2 | d2 c2 c2 B2 | %16
w: si ia- mais ie|suys hors de ses|_ _ _ _||laz, ie|lut di- ray en|deux motz: ie suys|
 A4 f4 | f2 f2 e2 d2- | dcBA B4 | AGAB c4 | z8 | G4 B2 c2 | d4 z2 d2 |"^b" e2 d2 c2 B2 | %24
w: las, ie|luy di- ray en|_ _ _ _ deux|motz, _ _ _ _||ie n'en suys|plus, ie|vous quit- te la|
 A3 B c2 d2 | cBAG A4 | G4 z4 | z8 | G4 B2 c2 | d4 z2 d2 |"^b" e2 d2 c2 B2 | A3 B c2 d2 | cBAG A4 | %33
w: pla- * * *||ce.||Je n'en suys|plus, ie|vous quit- te la|pla- * * *||
 G8 |] %34
w: ce.|
V:4
 z8 | G4 B3 A |"^b""^b" GFED E4 | D8 | z2 G2 C2 D2 |"^b" F6 ED | F2 G2 D4 | G8 | z2 G4 B2 | %9
w: |Dung des- *|plai- * * * *|sir|a- mour si|fort _ _|_ me las-|se,|que si|
 A2 G4 FE | D2 A2 B2 d2- | d2 c2 B2 G2 | B4 A4 | z2 d2 c2 B2 | A2 D2 F2 G2 | DEFG A2 z2 | %16
w: ia- mais _ _|_ ie suys hors|_ _ _ de|ses laz,|ie luy di-|ray, ie luy di-|ray, _ _ _ _|
 z4 z2 d2 | d2 d2 A2 B2- | B2 F2 G4 | D4 z4 | G4 B3 A |"^b""^b" GFED E4 | D8 | z2 G2 C2 D2 | %24
w: en|deux motz, ie suys|_ _ _|las,|ie n'en _|_ _ _ _ suys|plus,|ie vous quit-|
 F6 ED |"^b" F2 G2 D4 | G4 z4 | G4 B3 A |"^#""^b""^b" GFED E4 | D8 | z2 G2 C2 D2 |"^b" F6 ED | %32
w: |te la pla-|ce.|Je n'en- *|* * * * suys|plus,|ie vous qui-||
 F2 G2 D4 | G8 |] %34
w: te la pla-|ce.|

